X: 11106
T: Duibhneach
R: polka
M: 2/4
K: Dmajor
f2 d2|ce d2|AB cd|fg e2|f2 d2|ce d2|AB cd|eA d2:|
f2 A2|GB A2|dc ed|fe e2|f2 A2|GB A2|ec BA|d2 d2:|

